X:164 
T:O'Mahony's Hornpipe 
B:CRE3.225 (CornphÃÂÃÂÃÂÃÂ­opa UÃÂÃÂÃÂÃÂ­ MhathÃÂÃÂÃÂÃÂºna)
F:file ID: cre.3/164omah
R:hornpipe
L:1/8
Q:150
M:C
K:G
ge|dBAB GAGA|BGBd gfga|bage dBGB|(3ABA GB A2ge|
dBAB G3A|BGBd gfga|bage dBAB|G2GG G2:|
ga|bagb (3aba ga|baga a2ga|b2ba gedB|A2AA A2ge|
dBAB GAGA|BGBd gfga|bage dBAB|G2GG G2:|

%%%

